Suru++-Ubuntu/apps/scalable/roccat.svg

<svg width="256" height="256" version="1.1" viewBox="0 0 67.73 67.73" xmlns="http://www.w3.org/2000/svg" xmlns:xlink="http://www.w3.org/1999/xlink">
 <defs>
  <linearGradient id="linearGradient938" x1="32" x2="272" y1="156" y2="156" gradientTransform="matrix(.09224549 .25344241 -.25344241 .09224549 59.382368 209.72135)" gradientUnits="userSpaceOnUse">
   <stop style="stop-color:#666666" offset="0"/>
   <stop style="stop-color:#666666" offset="1"/>
  </linearGradient>
  <filter id="filter920" x="-.02" y="-.03" width="1.046" height="1.05" style="color-interpolation-filters:sRGB">
   <feGaussianBlur stdDeviation="2.32"/>
  </filter>
  <filter id="filter4569" x="-.01" y="-.01" width="1.023" height="1.025" style="color-interpolation-filters:sRGB">
   <feGaussianBlur stdDeviation="1.16"/>
  </filter>
  <linearGradient id="linearGradient906" x1="296" x2="296" y1="-212" y2="236" gradientUnits="userSpaceOnUse">
   <stop style="stop-color:#ffffff" offset="0"/>
   <stop style="stop-color:#ffffff;stop-opacity:.09803922" offset=".125"/>
   <stop style="stop-color:#000000;stop-opacity:.09803922" offset=".925"/>
   <stop style="stop-color:#000000;stop-opacity:.49803922" offset="1"/>
  </linearGradient>
  <clipPath id="clipPath1082-3-5-3">
   <path d="M 361.9375,-212 C 507.2348,-212 528,-191.28677 528,-46.125 V 70.125 C 528,215.28618 507.2348,236 361.9375,236 H 214.0625 C 68.7652,236 48,215.28618 48,70.125 V -46.125 C 48,-191.28677 68.7652,-212 214.0625,-212 Z" style="fill:#8c59d9"/>
  </clipPath>
 </defs>
 <g transform="translate(0,-229.26666)">
  <path transform="matrix(.26970778 0 0 .26970778 -7.1289177 220.56049)" d="m188.96876 43.999995c72.64865 0 83.03125 10.356615 83.03125 82.937505v58.125c0 72.58059-10.3826 82.9375-83.03125 82.9375h-73.9375c-72.648654 0-83.031254-10.35691-83.031254-82.9375v-58.125c0-72.58089 10.3826-82.937505 83.031254-82.937505z" style="filter:url(#filter4569);opacity:.1"/>
  <path transform="matrix(.26970778 0 0 .26970778 -7.1289177 220.56049)" d="m188.96876 45.999995c72.64865 0 83.03125 10.356615 83.03125 82.937505v58.125c0 72.58059-10.3826 82.9375-83.03125 82.9375h-73.9375c-72.648654 0-83.031254-10.35691-83.031254-82.9375v-58.125c0-72.58089 10.3826-82.937505 83.031254-82.937505z" style="filter:url(#filter920);opacity:.2"/>
  <path d="m43.837442 232.42763c19.593904 0 22.394169 2.79326 22.394172 22.36889v15.67677c0 19.57555-2.800271 22.36889-22.394172 22.36889h-19.941525c-19.593904 0-22.394173-2.79334-22.394173-22.36889l5e-7 -15.67677c8e-7 -19.57563 2.8002679-22.36889 22.394174-22.36889z" style="fill:url(#linearGradient938)"/>
  <path d="m65.618169 243.82542c0.467927 2.89126 0.620755 6.48639 0.620755 10.9711v15.67677c0 19.57554-2.83494 22.36888-22.67143 22.36888h-20.188408c-14.768533 0-20.110416-1.55409-21.877354-10.42378z" style="fill:#ffffff;opacity:.05"/>
  <path transform="matrix(.26458333 0 0 .26458333 0 229.26666)" d="m88.414062 240.24023c0.695029 0.00197 1.193853 0.04493 1.900391 0.04493h28.343747c-16.13577-0.84209-29.331023-5.38679-44.306638-9.71094 4.440276 3.54291 9.176493 6.71504 14.0625 9.66601z" style="fill:#11a0ee"/>
  <path transform="matrix(.26458333 0 0 .26458333 0 229.26666)" d="m250.32422 110.80078v-14.310546c0-9.248329-0.16557-17.505574-0.59961-24.875-0.21702-3.684712-0.50097-7.146679-0.86523-10.40039-0.36427-3.253712-0.80837-6.297958-1.34571-9.146485-0.53733-2.848527-1.16806-5.501544-1.90429-7.970703-0.73624-2.469159-1.57812-4.755486-2.53907-6.871094-0.96095-2.115607-2.04046-4.059783-3.25195-5.847656-1.21149-1.787872-2.55511-3.418343-4.04297-4.904297-1.48786-1.485953-3.1201-2.827257-4.91016-4.037109-1.79005-1.209852-3.7374-2.288481-5.85546-3.248047-2.11807-0.959566-4.407-1.800059-6.87891-2.535156s-5.12694-1.365899-7.97852-1.902344c-2.85157-0.536445-5.89918-0.980141-9.15625-1.34375-3.25706-0.363609-6.72373-0.646692-10.41211-0.863281-4.79824-0.281763-10.61684-0.305455-16.19531-0.388672 7.21641 3.123941 14.18421 6.643719 20.39258 10.951172 12.85684 9.065083 23.5472 26.429205 30.5625 40.208984 3.88842 7.637896 3.76087 4.395635-12.39453-1.365234-12.46173-4.443628-27.21988-8.973412-28.19141-7.904297-0.39884 0.439068-1.464 6.316094-2.35742 9.064453-1.69635 5.218205-4.93763 10.72244-5.68164 9.978516-0.23724-0.23811 0.22599-3.547734 1.0332-7.357422 1.75857-8.300939 1.85638-16.402943 0.4336-23.03711-1.54072-7.183899-2.46578-7.627067-10.73633-5.164062-3.82322 1.138545-12.0635 3.192019-18.31055 4.566406-18.69294 4.112277-34.716 12.851986-46.31055 19.822266-6.820523 4.100069-8.298539 4.271297-7.447261 0.878906 1.087423-4.332208-1.93987-2.933587-9.767578 4.501953-7.380106 7.010495-9.638672 8.294494-9.638672 5.496094 0-3.268649-1.959723-1.136545-5.75 6.248047-2.186286 4.259792-5.239356 11.113808-6.783203 15.236328-2.271972 6.06633-4.301861 9.16678-10.660156 16.26953-12.339711 13.78488-12.811195 16.70313-2.728516 16.70313 7.489512 0 7.68778 1.91766 0.369141 3.49414l-4.921875 1.05664 0.089844 6.05664c0.118072 8.25418 2.678882 13.30646 8.007812 15.78515 2.542507 1.18262 4.816212 3.21532 5.955078 5.33008 1.83532 3.408 6.807146 8.26367 8.466797 8.26367 0.481667 0 0.608038-2.18302 0.292969-4.8457-0.638355-5.38923 1.553566-11.47706 4.742188-13.18359 1.467582-0.78599 2.309151-0.32714 4.425781 2.44726 2.609733 3.42157 7.300131 7.10809 8.070312 6.33789 0.223295-0.22374-0.707543-3.27406-2.078125-6.77148-3.761076-9.59698-3.428302-11.05264 1.746094-15.55859 5.871258-5.11287 12.102418-7.78429 16.2832-7 6.42873 1.20551 15.61217 11.54663 17.00977 17.11523 0.83944 3.34416-1.18854 7.93065-4.8711 11.0293-3.8134 3.20889-7.02141 7.41992-9.49804 7.41992-1.0402 0-4.00533-1.85279-6.58008-4.11914-2.574709-2.26628-4.923797-3.87302-5.214844-3.58203-0.290834 0.29102-0.038071 2.24872 0.546875 4.36132 0.586333 2.11284 1.069265 4.41265 1.072266 5.09961 0.013228 2.2043-5.59534 1.33862-11.488281-1.75976-3.134725-1.64961-5.876687-2.99609-6.095704-2.99609-1.83301 0 4.958587 23.33058 8.134766 27.55273 2.358248 3.13485 4.745299 4.82765 7.765625 5.02539 4.007675 0.26268 9.132087-2.10818 16.792967-7.24414 12.72035-8.52805 23.73973-18.12074 36.47461-20.19336 6.98253-1.13681 10.57562 0.26336 15.6582 6.14453 6.98271 8.07972 24.21716 48.69042 22.58594 52.94141-16.74184 10.77462-36.24692 14.41846-54.80859 14.82422h36.69922c9.25696 0 17.52168-0.16447 24.89843-0.59766 3.68838-0.21659 7.15505-0.49967 10.41211-0.86328 3.25707-0.36362 6.30468-0.8073 9.15625-1.34375 2.85158-0.53645 5.50661-1.16724 7.97852-1.90235 2.47191-0.7351 4.76084-1.57558 6.87891-2.53515s4.06541-2.03819 5.85546-3.24805c1.79006-1.20986 3.4223-2.55115 4.91016-4.03711s2.83148-3.11642 4.04297-4.90429c1.21149-1.78788 2.291-3.73205 3.25195-5.84766s1.80283-4.40194 2.53907-6.87109c0.73623-2.46916 1.36696-5.12218 1.90429-7.97071 0.53734-2.84852 0.98144-5.89278 1.34571-9.14648 0.36426-3.25371 0.64821-6.71569 0.86523-10.40039 0.02655-0.45076 0.01255-1.06407 0.03711-1.52149-9.78458-4.4322-19.72443-8.68291-27.29883-11.38281-4.54237-1.61972-7.42759-3.15442-6.91016-3.67187 1.2537-1.25368 18.28848 1.29146 34.46094 4.59375 0.10323-4.27526 0.31055-8.09925 0.31055-12.89258v-0.88281c-9.97577-3.75108-20.84992-7.17444-31.5586-9.74219-17.36465-4.16372-16.64144-3.92629-14.72656-4.99805 2.48617-1.39136 25.13353 0.34101 46.28516 3v-16.58789c-15.6523-3.46551-33.47037-5.66949-50.09766-6.61914-10.19558-0.58163-13.9971-2.62017-11.49023-3.66797 15.99758-2.96054 19.30622-6.40625 49.70898-6.40625 4.02014 0.23178 7.97243 0.56276 11.87891 0.96289z" style="fill:#11a0ee"/>
  <path d="m23.564311 253.39455c0.125811 4e-3 0.224388 0.0373 0.281605 0.096 0.568602 0.59026-1.249217 2.92537-2.574679 3.30756-2.304015 0.66439-2.832535 0.21496-1.62527-1.37815 0.697127-0.91997 3.036986-2.07069 3.918344-2.02541z" style="fill:#ffffff"/>
  <path transform="matrix(.13485389 0 0 .13485389 -4.9712378 261.01665)" d="M 361.9375,-212 C 507.2348,-212 528,-191.28677 528,-46.125 V 70.125 C 528,215.28618 507.2348,236 361.9375,236 H 214.0625 C 68.7652,236 48,215.28618 48,70.125 V -46.125 C 48,-191.28677 68.7652,-212 214.0625,-212 Z" clip-path="url(#clipPath1082-3-5-3)" style="fill:none;opacity:.4;stroke-linecap:round;stroke-linejoin:round;stroke-width:8;stroke:url(#linearGradient906)"/>
 </g>
</svg>

<svg xmlns="http://www.w3.org/2000/svg" xmlns:xlink="http://www.w3.org/1999/xlink" width="256" height="256" version="1.1" viewBox="0 0 67.73 67.73">
 <defs>
  <linearGradient id="linearGradient938" x1="32" x2="272" y1="156" y2="156" gradientTransform="matrix(0.09224549,0.25344241,-0.25344241,0.09224549,59.382368,209.72135)" gradientUnits="userSpaceOnUse" xlink:href="#linearGradient4239"/>
  <linearGradient id="linearGradient4239">
   <stop offset="0" style="stop-color:#666666"/>
   <stop offset="1" style="stop-color:#666666"/>
  </linearGradient>
  <filter style="color-interpolation-filters:sRGB" id="filter920" width="1.046" height="1.05" x="-.02" y="-.03">
   <feGaussianBlur stdDeviation="2.32"/>
  </filter>
  <filter style="color-interpolation-filters:sRGB" id="filter4569" width="1.023" height="1.025" x="-.01" y="-.01">
   <feGaussianBlur stdDeviation="1.16"/>
  </filter>
  <linearGradient id="linearGradient906" x1="296" x2="296" y1="-212" y2="236" gradientUnits="userSpaceOnUse" xlink:href="#linearGradient1013"/>
  <linearGradient id="linearGradient1013">
   <stop style="stop-color:#ffffff" offset="0"/>
   <stop offset=".125" style="stop-color:#ffffff;stop-opacity:0.09803922"/>
   <stop offset=".925" style="stop-color:#000000;stop-opacity:0.09803922"/>
   <stop style="stop-color:#000000;stop-opacity:0.49803922" offset="1"/>
  </linearGradient>
  <clipPath id="clipPath1082-3-5-3" clipPathUnits="userSpaceOnUse">
   <path style="fill:#8c59d9" d="M 361.9375,-212 C 507.2348,-212 528,-191.28677 528,-46.125 V 70.125 C 528,215.28618 507.2348,236 361.9375,236 H 214.0625 C 68.7652,236 48,215.28618 48,70.125 V -46.125 C 48,-191.28677 68.7652,-212 214.0625,-212 Z"/>
  </clipPath>
 </defs>
 <g transform="translate(0,-229.26666)">
  <path d="m 188.96876,43.999995 c 72.64865,0 83.03125,10.356615 83.03125,82.937505 v 58.125 c 0,72.58059 -10.3826,82.9375 -83.03125,82.9375 h -73.9375 C 42.382606,268 32.000006,257.64309 32.000006,185.0625 v -58.125 c 0,-72.58089 10.3826,-82.937505 83.031254,-82.937505 z" transform="matrix(0.26970778,0,0,0.26970778,-7.1289177,220.56049)" style="opacity:0.1;filter:url(#filter4569)"/>
  <path style="opacity:0.2;filter:url(#filter920)" d="m 188.96876,45.999995 c 72.64865,0 83.03125,10.356615 83.03125,82.937505 v 58.125 c 0,72.58059 -10.3826,82.9375 -83.03125,82.9375 h -73.9375 C 42.382606,270 32.000006,259.64309 32.000006,187.0625 v -58.125 c 0,-72.58089 10.3826,-82.937505 83.031254,-82.937505 z" transform="matrix(0.26970778,0,0,0.26970778,-7.1289177,220.56049)"/>
  <path style="fill:url(#linearGradient938)" d="m 43.837442,232.42763 c 19.593904,0 22.394169,2.79326 22.394172,22.36889 v 15.67677 c 0,19.57555 -2.800271,22.36889 -22.394172,22.36889 H 23.895917 c -19.5939042,0 -22.3941728,-2.79334 -22.3941728,-22.36889 l 5e-7,-15.67677 c 8e-7,-19.57563 2.8002679,-22.36889 22.3941743,-22.36889 z"/>
  <path style="opacity:0.05;fill:#ffffff" d="m 65.618169,243.82542 c 0.467927,2.89126 0.620755,6.48639 0.620755,10.9711 v 15.67677 c 0,19.57554 -2.83494,22.36888 -22.67143,22.36888 H 23.379086 c -14.7685328,0 -20.1104161,-1.55409 -21.8773545,-10.42378 z"/>
  <path style="fill:#11a0ee" d="M 88.414062 240.24023 C 89.109091 240.2422 89.607915 240.28516 90.314453 240.28516 L 118.6582 240.28516 C 102.52243 239.44307 89.327177 234.89837 74.351562 230.57422 C 78.791838 234.11713 83.528055 237.28926 88.414062 240.24023 z" transform="matrix(0.26458333,0,0,0.26458333,0,229.26666)"/>
  <path style="fill:#11a0ee" d="M 250.32422 110.80078 L 250.32422 96.490234 C 250.32422 87.241905 250.15865 78.98466 249.72461 71.615234 C 249.50759 67.930522 249.22364 64.468555 248.85938 61.214844 C 248.49511 57.961132 248.05101 54.916886 247.51367 52.068359 C 246.97634 49.219832 246.34561 46.566815 245.60938 44.097656 C 244.87314 41.628497 244.03126 39.34217 243.07031 37.226562 C 242.10936 35.110955 241.02985 33.166779 239.81836 31.378906 C 238.60687 29.591034 237.26325 27.960563 235.77539 26.474609 C 234.28753 24.988656 232.65529 23.647352 230.86523 22.4375 C 229.07518 21.227648 227.12783 20.149019 225.00977 19.189453 C 222.8917 18.229887 220.60277 17.389394 218.13086 16.654297 C 215.65895 15.9192 213.00392 15.288398 210.15234 14.751953 C 207.30077 14.215508 204.25316 13.771812 200.99609 13.408203 C 197.73903 13.044594 194.27236 12.761511 190.58398 12.544922 C 185.78574 12.263159 179.96714 12.239467 174.38867 12.15625 C 181.60508 15.280191 188.57288 18.799969 194.78125 23.107422 C 207.63809 32.172505 218.32845 49.536627 225.34375 63.316406 C 229.23217 70.954302 229.10462 67.712041 212.94922 61.951172 C 200.48749 57.507544 185.72934 52.97776 184.75781 54.046875 C 184.35897 54.485943 183.29381 60.362969 182.40039 63.111328 C 180.70404 68.329533 177.46276 73.833768 176.71875 73.089844 C 176.48151 72.851734 176.94474 69.54211 177.75195 65.732422 C 179.51052 57.431483 179.60833 49.329479 178.18555 42.695312 C 176.64483 35.511413 175.71977 35.068245 167.44922 37.53125 C 163.626 38.669795 155.38572 40.723269 149.13867 42.097656 C 130.44573 46.209933 114.42267 54.949642 102.82812 61.919922 C 96.007597 66.019991 94.529581 66.191219 95.380859 62.798828 C 96.468282 58.46662 93.440989 59.865241 85.613281 67.300781 C 78.233175 74.311276 75.974609 75.595275 75.974609 72.796875 C 75.974609 69.528226 74.014886 71.66033 70.224609 79.044922 C 68.038323 83.304714 64.985253 90.15873 63.441406 94.28125 C 61.169434 100.34758 59.139545 103.44803 52.78125 110.55078 C 40.441539 124.33566 39.970055 127.25391 50.052734 127.25391 C 57.542246 127.25391 57.740514 129.17157 50.421875 130.74805 L 45.5 131.80469 L 45.589844 137.86133 C 45.707916 146.11551 48.268726 151.16779 53.597656 153.64648 C 56.140163 154.8291 58.413868 156.8618 59.552734 158.97656 C 61.388054 162.38456 66.35988 167.24023 68.019531 167.24023 C 68.501198 167.24023 68.627569 165.05721 68.3125 162.39453 C 67.674145 157.0053 69.866066 150.91747 73.054688 149.21094 C 74.52227 148.42495 75.363839 148.8838 77.480469 151.6582 C 80.090202 155.07977 84.7806 158.76629 85.550781 157.99609 C 85.774076 157.77235 84.843238 154.72203 83.472656 151.22461 C 79.71158 141.62763 80.044354 140.17197 85.21875 135.66602 C 91.090008 130.55315 97.321168 127.88173 101.50195 128.66602 C 107.93068 129.87153 117.11412 140.21265 118.51172 145.78125 C 119.35116 149.12541 117.32318 153.7119 113.64062 156.81055 C 109.82722 160.01944 106.61921 164.23047 104.14258 164.23047 C 103.10238 164.23047 100.13725 162.37768 97.5625 160.11133 C 94.987791 157.84505 92.638703 156.23831 92.347656 156.5293 C 92.056822 156.82032 92.309585 158.77802 92.894531 160.89062 C 93.480864 163.00346 93.963796 165.30327 93.966797 165.99023 C 93.980025 168.19453 88.371457 167.32885 82.478516 164.23047 C 79.343791 162.58086 76.601829 161.23438 76.382812 161.23438 C 74.549802 161.23438 81.341399 184.56496 84.517578 188.78711 C 86.875826 191.92196 89.262877 193.61476 92.283203 193.8125 C 96.290878 194.07518 101.41529 191.70432 109.07617 186.56836 C 121.79652 178.04031 132.8159 168.44762 145.55078 166.375 C 152.53331 165.23819 156.1264 166.63836 161.20898 172.51953 C 168.19169 180.59925 185.42614 221.20995 183.79492 225.46094 C 167.05308 236.23556 147.548 239.8794 128.98633 240.28516 L 165.68555 240.28516 C 174.94251 240.28516 183.20723 240.12069 190.58398 239.6875 C 194.27236 239.47091 197.73903 239.18783 200.99609 238.82422 C 204.25316 238.4606 207.30077 238.01692 210.15234 237.48047 C 213.00392 236.94402 215.65895 236.31323 218.13086 235.57812 C 220.60277 234.84302 222.8917 234.00254 225.00977 233.04297 C 227.12784 232.0834 229.07518 231.00478 230.86523 229.79492 C 232.65529 228.58506 234.28753 227.24377 235.77539 225.75781 C 237.26325 224.27185 238.60687 222.64139 239.81836 220.85352 C 241.02985 219.06564 242.10936 217.12147 243.07031 215.00586 C 244.03126 212.89025 244.87314 210.60392 245.60938 208.13477 C 246.34561 205.66561 246.97634 203.01259 247.51367 200.16406 C 248.05101 197.31554 248.49511 194.27128 248.85938 191.01758 C 249.22364 187.76387 249.50759 184.30189 249.72461 180.61719 C 249.75116 180.16643 249.73716 179.55312 249.76172 179.0957 C 239.97714 174.6635 230.03729 170.41279 222.46289 167.71289 C 217.92052 166.09317 215.0353 164.55847 215.55273 164.04102 C 216.80643 162.78734 233.84121 165.33248 250.01367 168.63477 C 250.1169 164.35951 250.32422 160.53552 250.32422 155.74219 L 250.32422 154.85938 C 240.34845 151.1083 229.4743 147.68494 218.76562 145.11719 C 201.40097 140.95347 202.12418 141.1909 204.03906 140.11914 C 206.52523 138.72778 229.17259 140.46015 250.32422 143.11914 L 250.32422 126.53125 C 234.67192 123.06574 216.85385 120.86176 200.22656 119.91211 C 190.03098 119.33048 186.22946 117.29194 188.73633 116.24414 C 204.73391 113.2836 208.04255 109.83789 238.44531 109.83789 C 242.46545 110.06967 246.41774 110.40065 250.32422 110.80078 z" transform="matrix(0.26458333,0,0,0.26458333,0,229.26666)"/>
  <path style="fill:#ffffff" d="m 23.564311,253.39455 c 0.125811,0.004 0.224388,0.0373 0.281605,0.096 0.568602,0.59026 -1.249217,2.92537 -2.574679,3.30756 -2.304015,0.66439 -2.832535,0.21496 -1.62527,-1.37815 0.697127,-0.91997 3.036986,-2.07069 3.918344,-2.02541 z"/>
  <path style="opacity:0.4;fill:none;stroke:url(#linearGradient906);stroke-width:8;stroke-linecap:round;stroke-linejoin:round" d="M 361.9375,-212 C 507.2348,-212 528,-191.28677 528,-46.125 V 70.125 C 528,215.28618 507.2348,236 361.9375,236 H 214.0625 C 68.7652,236 48,215.28618 48,70.125 V -46.125 C 48,-191.28677 68.7652,-212 214.0625,-212 Z" clip-path="url(#clipPath1082-3-5-3)" transform="matrix(0.13485389,0,0,0.13485389,-4.9712378,261.01665)"/>
 </g>
</svg>
